static/img/kroki/9a6ad40c6427b36dbc9320a9cb2544a0.svg

<?xml version="1.0" encoding="us-ascii" standalone="no"?><svg xmlns="http://www.w3.org/2000/svg" xmlns:xlink="http://www.w3.org/1999/xlink" contentStyleType="text/css" height="374px" preserveAspectRatio="none" style="width:375px;height:374px;" version="1.1" viewBox="0 0 375 374" width="375px" zoomAndPan="magnify"><defs/><g><!--class azure_compute_dedicated_host_group--><g id="elem_azure_compute_dedicated_host_group"><rect codeLine="23" fill="#3D176E" height="39.7891" id="azure_compute_dedicated_host_group" rx="2.5" ry="2.5" style="stroke:#000D19;stroke-width:0.5;" width="361" x="7" y="328.58"/><ellipse cx="22" cy="348.4745" fill="#ADD1B2" rx="11" ry="11" style="stroke:#181818;stroke-width:1.0;"/><path d="M24.9688,354.1152 Q24.3906,354.412 23.75,354.5527 Q23.1094,354.7089 22.4063,354.7089 Q19.9063,354.7089 18.5781,353.0683 Q17.2656,351.412 17.2656,348.287 Q17.2656,345.162 18.5781,343.5058 Q19.9063,341.8495 22.4063,341.8495 Q23.1094,341.8495 23.75,342.0058 Q24.4063,342.162 24.9688,342.4589 L24.9688,345.1777 Q24.3438,344.5995 23.75,344.3339 Q23.1563,344.0527 22.5313,344.0527 Q21.1875,344.0527 20.5,345.1308 Q19.8125,346.1933 19.8125,348.287 Q19.8125,350.3808 20.5,351.4589 Q21.1875,352.5214 22.5313,352.5214 Q23.1563,352.5214 23.75,352.2558 Q24.3438,351.9745 24.9688,351.3964 L24.9688,354.1152 Z " fill="#000000"/><text fill="#D9B8FF" font-family="Helvetica" font-size="17" lengthAdjust="spacing" textLength="319" x="41" y="354.3598">azure_compute_dedicated_host_group</text></g><!--class microsoft_resource--><g id="elem_microsoft_resource"><rect codeLine="26" fill="#3D176E" height="39.7891" id="microsoft_resource" rx="2.5" ry="2.5" style="stroke:#000D19;stroke-width:0.5;" width="200" x="87.5" y="167.79"/><ellipse cx="102.5" cy="187.6845" fill="#ADD1B2" rx="11" ry="11" style="stroke:#181818;stroke-width:1.0;"/><path d="M105.4688,193.3252 Q104.8906,193.622 104.25,193.7627 Q103.6094,193.9189 102.9063,193.9189 Q100.4063,193.9189 99.0781,192.2783 Q97.7656,190.622 97.7656,187.497 Q97.7656,184.372 99.0781,182.7158 Q100.4063,181.0595 102.9063,181.0595 Q103.6094,181.0595 104.25,181.2158 Q104.9063,181.372 105.4688,181.6689 L105.4688,184.3877 Q104.8438,183.8095 104.25,183.5439 Q103.6563,183.2627 103.0313,183.2627 Q101.6875,183.2627 101,184.3408 Q100.3125,185.4033 100.3125,187.497 Q100.3125,189.5908 101,190.6689 Q101.6875,191.7314 103.0313,191.7314 Q103.6563,191.7314 104.25,191.4658 Q104.8438,191.1845 105.4688,190.6064 L105.4688,193.3252 Z " fill="#000000"/><text fill="#D9B8FF" font-family="Helvetica" font-size="17" lengthAdjust="spacing" textLength="158" x="121.5" y="193.5698">microsoft_resource</text></g><!--class resource--><g id="elem_resource"><rect codeLine="29" fill="#3D176E" height="39.7891" id="resource" rx="2.5" ry="2.5" style="stroke:#000D19;stroke-width:0.5;" width="113" x="131" y="7"/><ellipse cx="146" cy="26.8945" fill="#ADD1B2" rx="11" ry="11" style="stroke:#181818;stroke-width:1.0;"/><path d="M148.9688,32.5352 Q148.3906,32.832 147.75,32.9727 Q147.1094,33.1289 146.4063,33.1289 Q143.9063,33.1289 142.5781,31.4883 Q141.2656,29.832 141.2656,26.707 Q141.2656,23.582 142.5781,21.9258 Q143.9063,20.2695 146.4063,20.2695 Q147.1094,20.2695 147.75,20.4258 Q148.4063,20.582 148.9688,20.8789 L148.9688,23.5977 Q148.3438,23.0195 147.75,22.7539 Q147.1563,22.4727 146.5313,22.4727 Q145.1875,22.4727 144.5,23.5508 Q143.8125,24.6133 143.8125,26.707 Q143.8125,28.8008 144.5,29.8789 Q145.1875,30.9414 146.5313,30.9414 Q147.1563,30.9414 147.75,30.6758 Q148.3438,30.3945 148.9688,29.8164 L148.9688,32.5352 Z " fill="#000000"/><text fill="#D9B8FF" font-family="Helvetica" font-size="17" lengthAdjust="spacing" textLength="71" x="165" y="32.7798">resource</text></g><!--reverse link microsoft_resource to azure_compute_dedicated_host_group--><g id="link_microsoft_resource_azure_compute_dedicated_host_group"><path codeLine="32" d="M187.5,225.84 C187.5,256.36 187.5,297.69 187.5,328.25 " fill="none" id="microsoft_resource-backto-azure_compute_dedicated_host_group" style="stroke:#FFAF37;stroke-width:2.0;"/><polygon fill="none" points="187.5,207.84,181.5,225.84,193.5,225.84,187.5,207.84" style="stroke:#FFAF37;stroke-width:2.0;"/></g><!--reverse link resource to microsoft_resource--><g id="link_resource_microsoft_resource"><path codeLine="33" d="M187.5,65.05 C187.5,95.57 187.5,136.9 187.5,167.46 " fill="none" id="resource-backto-microsoft_resource" style="stroke:#FFAF37;stroke-width:2.0;"/><polygon fill="none" points="187.5,47.05,181.5,65.05,193.5,65.05,187.5,47.05" style="stroke:#FFAF37;stroke-width:2.0;"/></g><!--SRC=[ZP5FRy8m3CNl_HIHE2ErGniWxSAGfks2fh5x5HA7HZHnvRX3iEsxZmusXPO_k_hzxFTi5rQ305VnHZXm2w2GX9NrbIJfn8G8rrCiaKJF66a6mxRuY9wl0ZFfG3n1-GvibMmJRuLLAmyXY9j8Uf1gjIIilTwFPv8-x2Jm757JKeOmOIQxg1cYC7gy61dJ9jj3UmET3U-WWo5fe0EIfgdEnctagjN5lV-8kTs2oEAZpP2X4xDZyKDTJDaGKSZEeh_wsOmlKclhb-8sghtkCv47EghF2wbntT16bY6s2Gm4o9iAffsjO3pIPdWIVZu79wevdP3RcY1NwAhTstCDUfUTGUS51iwRlafy9CdNWNPM4GOqd1C4h4b1h1xNJh3td_r-_n-MIQkZEohv1W00]--></g></svg>

<svg xmlns="http://www.w3.org/2000/svg" width="375" height="374" viewBox="0 0 375 374"><rect width="361" height="39.789" x="7" y="328.58" fill="#3D176E" rx="2.5" ry="2.5" style="stroke:#000d19;stroke-width:.5"/><circle cx="22" cy="348.474" r="11" fill="#ADD1B2" style="stroke:#181818;stroke-width:1"/><path d="M24.969 354.115q-.578.297-1.219.438-.64.156-1.344.156-2.5 0-3.828-1.64-1.312-1.657-1.312-4.782t1.312-4.781q1.328-1.656 3.828-1.656.703 0 1.344.156.656.156 1.219.453v2.719q-.625-.579-1.219-.844-.594-.281-1.219-.281-1.343 0-2.031 1.078-.687 1.062-.687 3.156t.687 3.172q.688 1.062 2.031 1.062.625 0 1.219-.265.594-.281 1.219-.86z"/><text x="41" y="354.36" fill="#D9B8FF" font-family="Helvetica" font-size="17" textLength="319">azure_compute_dedicated_host_group</text><rect width="200" height="39.789" x="87.5" y="167.79" fill="#3D176E" rx="2.5" ry="2.5" style="stroke:#000d19;stroke-width:.5"/><circle cx="102.5" cy="187.685" r="11" fill="#ADD1B2" style="stroke:#181818;stroke-width:1"/><path d="M105.469 193.325q-.578.297-1.219.438-.64.156-1.344.156-2.5 0-3.828-1.64-1.312-1.657-1.312-4.782t1.312-4.781q1.328-1.656 3.828-1.656.703 0 1.344.156.656.156 1.219.453v2.719q-.625-.578-1.219-.844-.594-.281-1.219-.281-1.344 0-2.031 1.078-.687 1.062-.687 3.156t.687 3.172q.688 1.062 2.031 1.062.625 0 1.219-.265.594-.281 1.219-.86z"/><text x="121.5" y="193.57" fill="#D9B8FF" font-family="Helvetica" font-size="17" textLength="158">microsoft_resource</text><rect width="113" height="39.789" x="131" y="7" fill="#3D176E" rx="2.5" ry="2.5" style="stroke:#000d19;stroke-width:.5"/><circle cx="146" cy="26.895" r="11" fill="#ADD1B2" style="stroke:#181818;stroke-width:1"/><path d="M148.969 32.535q-.578.297-1.219.438-.64.156-1.344.156-2.5 0-3.828-1.64-1.312-1.657-1.312-4.782t1.312-4.781q1.328-1.656 3.828-1.656.703 0 1.344.156.656.156 1.219.453v2.719q-.625-.578-1.219-.844-.594-.281-1.219-.281-1.344 0-2.031 1.078-.687 1.062-.687 3.156t.687 3.172q.688 1.062 2.031 1.062.625 0 1.219-.265.594-.281 1.219-.86z"/><text x="165" y="32.78" fill="#D9B8FF" font-family="Helvetica" font-size="17" textLength="71">resource</text><path fill="none" d="M187.5 225.84v102.41m0-120.41-6 18h12zm0-142.79v102.41m0-120.41-6 18h12z" style="stroke:#ffaf37;stroke-width:2"/></svg>
